icon/pk/weight.svg

<svg viewBox="0 0 48 48" fill="none" xmlns="http://www.w3.org/2000/svg" height="1em" width="1em">
  <path d="M41 4H7C5.34315 4 4 5.34315 4 7V41C4 42.6569 5.34315 44 7 44H41C42.6569 44 44 42.6569 44 41V7C44 5.34315 42.6569 4 41 4Z" fill="#2F88FF" stroke="black" stroke-width="4" stroke-linejoin="round"/>
  <path d="M12 19.0537C15.3249 15.0537 19.3249 13.0537 24 13.0537C28.6751 13.0537 32.6751 15.0537 36 19.0537" stroke="white" stroke-width="4" stroke-linecap="round"/>
  <path d="M24 31C25.6569 31 27 29.6569 27 28C27 26.3431 25.6569 25 24 25C22.3431 25 21 26.3431 21 28C21 29.6569 22.3431 31 24 31Z" fill="white"/>
  <path d="M19 21L24.0083 28" stroke="white" stroke-width="4" stroke-linecap="round"/>
</svg>

<svg width="48" height="48" fill="none" xmlns="http://www.w3.org/2000/svg"><path d="M41 4H7a3 3 0 0 0-3 3v34a3 3 0 0 0 3 3h34a3 3 0 0 0 3-3V7a3 3 0 0 0-3-3Z" fill="#2F88FF" stroke="#000" stroke-width="4" stroke-linejoin="round"/><path d="M12 19.054c3.325-4 7.325-6 12-6s8.675 2 12 6" stroke="#fff" stroke-width="4" stroke-linecap="round"/><path d="M24 31a3 3 0 1 0 0-6 3 3 0 0 0 0 6Z" fill="#fff"/><path d="m19 21 5.008 7" stroke="#fff" stroke-width="4" stroke-linecap="round"/></svg>
